icons/arrow-doublehead-d.svg

<svg width="24" height="24" viewBox="0 0 24 24" fill="none" xmlns="http://www.w3.org/2000/svg">
<path fill-rule="evenodd" clip-rule="evenodd" d="M17.7983 6.20173C18.0912 6.49462 18.0912 6.96949 17.7983 7.26239L7.26239 17.7983C6.9695 18.0912 6.49463 18.0912 6.20173 17.7983C5.90884 17.5054 5.90884 17.0305 6.20173 16.7376L16.7376 6.20173C17.0305 5.90883 17.5054 5.90883 17.7983 6.20173Z" fill="black"/>
<path fill-rule="evenodd" clip-rule="evenodd" d="M17.5509 13.2803C17.1366 13.2803 16.8009 12.9445 16.8009 12.5303L16.8009 7.36332C16.7831 7.28703 16.7512 7.2405 16.7288 7.21819C16.7161 7.20546 16.7073 7.20101 16.7046 7.19986C16.7038 7.19952 16.7034 7.19935 16.7031 7.19926L11.409 7.26985C10.9949 7.27537 10.6546 6.94409 10.6491 6.52992C10.6436 6.11574 10.9749 5.77551 11.389 5.76998L16.7023 5.69914C17.5898 5.69914 18.1836 6.4239 18.2933 7.19167L18.3009 7.24443L18.3009 12.5303C18.3009 12.9445 17.9651 13.2803 17.5509 13.2803Z" fill="black"/>
<path fill-rule="evenodd" clip-rule="evenodd" d="M13.2096 17.4801C13.2096 17.8943 12.8738 18.2301 12.4596 18.2301H7.22701C6.38854 18.2301 5.6992 17.5408 5.6992 16.7023L5.6992 11.4697C5.6992 11.0555 6.03498 10.7197 6.4492 10.7197C6.86341 10.7197 7.1992 11.0555 7.1992 11.4697L7.1992 16.7023C7.1992 16.7026 7.19918 16.7098 7.20934 16.72C7.2195 16.7301 7.22669 16.7301 7.22701 16.7301L12.4596 16.7301C12.8738 16.7301 13.2096 17.0659 13.2096 17.4801Z" fill="black"/>
</svg>

<svg xmlns="http://www.w3.org/2000/svg" fill="none" viewBox="0 0 24 24">
  <path fill="#000" fill-rule="evenodd" d="M17.798 6.202a.75.75 0 0 1 0 1.06L7.262 17.798a.75.75 0 1 1-1.06-1.06L16.738 6.202a.75.75 0 0 1 1.06 0Z" clip-rule="evenodd"/>
  <path fill="#000" fill-rule="evenodd" d="M17.55 13.28a.75.75 0 0 1-.75-.75V7.363a.303.303 0 0 0-.071-.145.084.084 0 0 0-.026-.019l-5.294.07a.75.75 0 0 1-.02-1.499l5.313-.07c.888 0 1.482.724 1.591 1.492l.008.052v5.286a.75.75 0 0 1-.75.75Zm-4.34 4.2a.75.75 0 0 1-.75.75H7.227c-.838 0-1.528-.69-1.528-1.528V11.47a.75.75 0 0 1 1.5 0v5.232s0 .008.01.018c.01.01.018.01.018.01h5.233a.75.75 0 0 1 .75.75Z" clip-rule="evenodd"/>
</svg>
